src/Images/Star_Red.svg

<svg fill="none" height="14" viewBox="0 0 14 14" width="14" xmlns="http://www.w3.org/2000/svg"><path d="m7.43233 1.3376c-.13456-.27927-.41889-.456985-.73116-.456985-.31226 0-.59406.177715-.73116.456985l-1.63241 3.3588-3.645629.53822c-.304649.0457-.558523.25896-.6524569.55091-.0939334.29196-.0177713.61439.2005609.83019l2.645365 2.61748-.62453 3.699c-.05077.3046.07616.6144.3275.7946.25134.1803.58391.2031.85809.0584l3.25721-1.739 3.2572 1.739c.27419.1447.60679.1244.85809-.0584s.3783-.49.3275-.7946l-.6271-3.699 2.6454-2.61748c.2183-.2158.297-.53823.2006-.83019-.0965-.29195-.3478-.50521-.6525-.55091l-3.64816-.53822z" fill="#ff6060"/></svg>

<svg width="14" height="14" viewBox="0 0 14 14" fill="none" xmlns="http://www.w3.org/2000/svg">
<path d="M7.43233 1.3376C7.29777 1.05833 7.01344 0.880615 6.70117 0.880615C6.38891 0.880615 6.10711 1.05833 5.97001 1.3376L4.3376 4.6964L0.691971 5.23462C0.387322 5.28032 0.133448 5.49358 0.0395141 5.78553C-0.0544193 6.07749 0.0217428 6.39992 0.240075 6.61572L2.88544 9.2332L2.26091 12.9322C2.21014 13.2368 2.33707 13.5466 2.58841 13.7268C2.83975 13.9071 3.17232 13.9299 3.4465 13.7852L6.70371 12.0462L9.96091 13.7852C10.2351 13.9299 10.5677 13.9096 10.819 13.7268C11.0703 13.544 11.1973 13.2368 11.1465 12.9322L10.5194 9.2332L13.1648 6.61572C13.3831 6.39992 13.4618 6.07749 13.3654 5.78553C13.2689 5.49358 13.0176 5.28032 12.7129 5.23462L9.06474 4.6964L7.43233 1.3376Z" fill="#FF6060"/>
</svg>
